img/button-next.svg

<svg width="54" height="56" viewBox="0 0 54 56" fill="none" xmlns="http://www.w3.org/2000/svg">
<rect x="1" y="1" width="52" height="54" rx="26" stroke="white" stroke-width="2"/>
<path d="M25.2232 23.0938C24.9107 23.4062 24.942 23.875 25.2232 24.1875L29.0045 27.75H20.0357C19.5982 27.75 19.2857 28.0938 19.2857 28.5V29.5C19.2857 29.9375 19.5982 30.25 20.0357 30.25H29.0045L25.2232 33.8438C24.942 34.1562 24.942 34.625 25.2232 34.9375L25.9107 35.625C26.2232 35.9062 26.692 35.9062 26.9732 35.625L33.067 29.5312C33.3482 29.25 33.3482 28.7812 33.067 28.4688L26.9732 22.4062C26.692 22.125 26.2232 22.125 25.9107 22.4062L25.2232 23.0938Z" fill="white"/>
</svg>

<svg width="54" height="56" fill="none" xmlns="http://www.w3.org/2000/svg"><rect x="1" y="1" width="52" height="54" rx="26" stroke="#fff" stroke-width="2"/><path d="M25.223 23.094c-.312.312-.281.781 0 1.093l3.782 3.563h-8.97a.74.74 0 0 0-.75.75v1c0 .438.313.75.75.75h8.97l-3.782 3.594a.814.814 0 0 0 0 1.093l.688.688c.312.281.781.281 1.062 0l6.094-6.094c.281-.281.281-.75 0-1.062l-6.094-6.063c-.281-.281-.75-.281-1.062 0l-.688.688Z" fill="#fff"/></svg>
